proprietary/assets/icons/activiteiten/spreker-voor-publiek.svg

<svg height="64" viewBox="0 0 64 64" width="64" xmlns="http://www.w3.org/2000/svg"><path d="m0 0h64v64h-64z" fill="none"/><path d="m31.9998 13c3.1371 0 4.952-2.2094 4.952-5.3887 0-3.6237-1.8971-5.5663-4.952-5.5663-3.2183 0-4.952 2.2967-4.952 5.5663 0 3.445 1.8154 5.3887 4.952 5.3887z"/><path d="m9.0397 48.9998c-3.2491-.0232-5.0159 2.2711-5.0394 5.5531-.0251 3.4593 1.795 5.4234 4.9612 5.4469 3.167.0223 5.0159-2.1821 5.0384-5.3752.026-3.6381-1.8758-5.6021-4.9602-5.6248z"/><path d="m20.9998 42.6246c.0261-3.6381-1.8758-5.6022-4.9602-5.6248-3.2491-.0232-5.0159 2.2711-5.0394 5.5531-.0251 3.4593 1.795 5.4234 4.9612 5.4469 3.167.0224 5.0159-2.1821 5.0384-5.3752z"/><path d="m52.9999 42.6246c.0261-3.6381-1.8758-5.6022-4.9602-5.6248-3.2491-.0232-5.0159 2.2711-5.0394 5.5531-.0251 3.4593 1.795 5.4234 4.9612 5.4469 3.167.0224 5.0159-2.1821 5.0384-5.3752z"/><path d="m54.0397 48.9998c-3.2491-.0232-5.0159 2.2711-5.0394 5.5531-.0251 3.4593 1.795 5.4234 4.9612 5.4469 3.167.0223 5.0159-2.1821 5.0384-5.3752.026-3.6381-1.8758-5.6021-4.9602-5.6248z"/><path d="m39.0398 48.9998c-3.2491-.0232-5.0159 2.2711-5.0394 5.5531-.0251 3.4593 1.795 5.4234 4.9612 5.4469 3.167.0223 5.0159-2.1821 5.0384-5.3752.0261-3.6381-1.8758-5.6021-4.9602-5.6248z"/><path d="m24.0398 48.9998c-3.2491-.0232-5.0159 2.2711-5.0394 5.5531-.0251 3.4593 1.795 5.4234 4.9612 5.4469 3.167.0223 5.0159-2.1821 5.0384-5.3752.0261-3.6381-1.8758-5.6021-4.9602-5.6248z"/><path d="m25.5995 22.3048c.1254-.4126.4005-.3339.4005-.3339v3.0291h12v-3.0291s.2958-.1058.4396.3339c.1865.57.4369 1.5119.5604 2.6952h4c-.4411-5.1888-1.7505-9.4503-5.598-10.3973-3.2641-.8035-7.6355-.8035-10.8081 0-3.8384.9721-5.1499 5.2221-5.5939 10.3973h4c.1304-1.1453.4097-2.0706.5995-2.6952z"/><path d="m25 46h14l1.7938-12.4534-6.5287-1.1826c-.3172-.1018-.2708-.3079-.2499-.3641 1.8828.0001 10.3767.0001 11.9848.0001v-4c0-.5523-.4477-1-1-1h-26c-.5523 0-1 .4477-1 1v4h5z"/></svg>

<?xml version="1.0" encoding="utf-8"?>
<!-- Generator: Adobe Illustrator 19.1.0, SVG Export Plug-In . SVG Version: 6.00 Build 0)  -->
<svg version="1.2" baseProfile="tiny" xmlns="http://www.w3.org/2000/svg" xmlns:xlink="http://www.w3.org/1999/xlink" x="0px"
	 y="0px" width="64px" height="64px" viewBox="0 0 64 64" xml:space="preserve">
<g id="_x36_4px_Box">
	<rect fill="none" width="64" height="64"/>
</g>
<g id="Icon">
	<g>
		<path d="M31.9998,13c3.1371,0,4.952-2.2094,4.952-5.3887c0-3.6237-1.8971-5.5663-4.952-5.5663
			c-3.2183,0-4.952,2.2967-4.952,5.5663C27.0478,11.0563,28.8632,13,31.9998,13z"/>
		<path d="M9.0397,48.9998c-3.2491-0.0232-5.0159,2.2711-5.0394,5.5531c-0.0251,3.4593,1.795,5.4234,4.9612,5.4469
			c3.167,0.0223,5.0159-2.1821,5.0384-5.3752C14.0259,50.9865,12.1241,49.0225,9.0397,48.9998z"/>
		<path d="M20.9998,42.6246c0.0261-3.6381-1.8758-5.6022-4.9602-5.6248c-3.2491-0.0232-5.0159,2.2711-5.0394,5.5531
			c-0.0251,3.4593,1.795,5.4234,4.9612,5.4469C19.1284,48.0222,20.9773,45.8177,20.9998,42.6246z"/>
		<path d="M52.9999,42.6246c0.0261-3.6381-1.8758-5.6022-4.9602-5.6248c-3.2491-0.0232-5.0159,2.2711-5.0394,5.5531
			c-0.0251,3.4593,1.795,5.4234,4.9612,5.4469C51.1285,48.0222,52.9774,45.8177,52.9999,42.6246z"/>
		<path d="M54.0397,48.9998c-3.2491-0.0232-5.0159,2.2711-5.0394,5.5531c-0.0251,3.4593,1.795,5.4234,4.9612,5.4469
			c3.167,0.0223,5.0159-2.1821,5.0384-5.3752C59.0259,50.9865,57.1241,49.0225,54.0397,48.9998z"/>
		<path d="M39.0398,48.9998c-3.2491-0.0232-5.0159,2.2711-5.0394,5.5531c-0.0251,3.4593,1.795,5.4234,4.9612,5.4469
			c3.167,0.0223,5.0159-2.1821,5.0384-5.3752C44.0261,50.9865,42.1242,49.0225,39.0398,48.9998z"/>
		<path d="M24.0398,48.9998c-3.2491-0.0232-5.0159,2.2711-5.0394,5.5531c-0.0251,3.4593,1.795,5.4234,4.9612,5.4469
			c3.167,0.0223,5.0159-2.1821,5.0384-5.3752C29.0261,50.9865,27.1242,49.0225,24.0398,48.9998z"/>
		<path d="M25.5995,22.3048C25.7249,21.8922,26,21.9709,26,21.9709V25h12v-3.0291c0,0,0.2958-0.1058,0.4396,0.3339
			C38.6261,22.8748,38.8765,23.8167,39,25h4c-0.4411-5.1888-1.7505-9.4503-5.598-10.3973c-3.2641-0.8035-7.6355-0.8035-10.8081,0
			C22.7555,15.5748,21.444,19.8248,21,25h4C25.1304,23.8547,25.4097,22.9294,25.5995,22.3048z"/>
		<path d="M25,46h14l1.7938-12.4534l-6.5287-1.1826c-0.3172-0.1018-0.2708-0.3079-0.2499-0.3641C35.898,32,44.3919,32,46,32v-4
			c0-0.5523-0.4477-1-1-1H19c-0.5523,0-1,0.4477-1,1v4h5L25,46z"/>
	</g>
</g>
</svg>
